symbols/web/aod/materialsymbolssharp/aod_wght500grad200fill1_48px.svg

<svg xmlns="http://www.w3.org/2000/svg" height="48" width="48"><path d="M15.75 22.65V19.8h16.5v2.85Zm2.05 6.55v-2.8h12.4v2.8ZM9.2 46.85V1.15h29.6v45.7Zm3.85-8.6h21.9V9.75h-21.9Z"/></svg>

<svg xmlns="http://www.w3.org/2000/svg" height="48" width="48"><path d="M15.75 22.65V19.8H32.25V22.65ZM17.8 29.2V26.4H30.2V29.2ZM9.2 46.85V1.15H38.8V46.85ZM13.05 38.25H34.95V9.75H13.05Z"/></svg>
